X:315
T: ICH SPRING AN DIESEM RINGE
N: E0930
O: Europa, Mitteleuropa, Deutschland
R: Tanz - Lied, Reigen
M: 6/4
L: 1/4
K: F
F | F2FA2A | c3c2
c | c2cd2d | c3A2
F | F2FA2A | c3c2
c | c2cd2d | c3e2
e | f2fe2d | c3A2
A | c2cd2d | c3B2
B | A2AG2G | F4z

@@@ Tune index: 4628
